svg/u1f397.svg

<svg viewBox="0 0 128 128" xmlns="http://www.w3.org/2000/svg">
  <path d="M43.34,24.87l5.09,6.85c0,0,4.57-5.21,16-5.46c10.67-0.24,15.37,5.71,15.37,5.71l7.11-13.72 c0,0-2.85-9.17-12-13.27c-2.94-1.32-6.65-2.09-11.2-1.94c-5.42,0.18-9.13,1.47-12.28,2.89C45.01,8.83,43.34,24.87,43.34,24.87z" fill="#FFA828"/>
  <path d="M16.54,106.02c-0.15,1.48,2.46,2.62,7.53,9.01s9.01,10.81,9.82,10.97s21.94-13.1,42.24-40.61 S98.67,30.6,93.83,21.54C87.6,9.91,75.32,5.16,75.32,5.16s11.28,25.91-9.33,55.51C44.21,91.94,16.71,104.39,16.54,106.02z" fill="#FFB803"/>
  <path d="M50.96,6.16c0,0-14.79,9.3-18.05,20.12c-3.91,12.97,0.49,33.24,17.85,57.14s41.42,40.44,42.57,40.61 c1.15,0.16,7.53-6.71,10.48-10.48c2.95-3.77,7.04-8.68,6.88-9.33S82.97,88.11,71.72,74.59C58.79,59.03,51.26,42.26,49.78,31.36 C47.49,14.5,50.96,6.16,50.96,6.16z" fill="#FFD54F"/>
</svg>

<svg viewBox="0 0 128 128" xmlns="http://www.w3.org/2000/svg">
  <defs/>
  <path d="M43.34,24.87 L48.43,31.72 C48.43,31.72 53,26.51 64.43,26.26 C75.1,26.02 79.8,31.97 79.8,31.97 L86.91,18.25 C86.91,18.25 84.06,9.08 74.91,4.98 C71.97,3.66 68.26,2.89 63.71,3.04 C58.29,3.22 54.58,4.51 51.43,5.93 C45.01,8.83 43.34,24.87 43.34,24.87 Z" fill="#FFA828"/>
  <path d="M16.54,106.02 C16.39,107.5 19,108.64 24.07,115.03 C29.14,121.42 33.08,125.84 33.89,126 C34.7,126.16 55.83,112.9 76.13,85.39 C96.43,57.88 98.67,30.6 93.83,21.54 C87.6,9.91 75.32,5.16 75.32,5.16 C75.32,5.16 86.6,31.07 65.99,60.67 C44.21,91.94 16.71,104.39 16.54,106.02 Z" fill="#FFB803"/>
  <path d="M50.96,6.16 C50.96,6.16 36.17,15.46 32.91,26.28 C29,39.25 33.4,59.52 50.76,83.42 C68.12,107.32 92.18,123.86 93.33,124.03 C94.48,124.19 100.86,117.32 103.81,113.55 C106.76,109.78 110.85,104.87 110.69,104.22 C110.53,103.57 82.97,88.11 71.72,74.59 C58.79,59.03 51.26,42.26 49.78,31.36 C47.49,14.5 50.96,6.16 50.96,6.16 Z" fill="#FFD54F"/>
</svg>
